src/images/svg/date.svg

<?xml version="1.0" encoding="UTF-8"?>
<svg width="963px" height="322px" viewBox="0 0 963 322" version="1.1" xmlns="http://www.w3.org/2000/svg" xmlns:xlink="http://www.w3.org/1999/xlink">
    <!-- Generator: Sketch 54.1 (76490) - https://sketchapp.com -->
    <title>date</title>
    <desc>Created with Sketch.</desc>
    <defs>
        <linearGradient x1="78.1571205%" y1="104.608386%" x2="10.8954316%" y2="6.02007516%" id="linearGradient-1">
            <stop stop-color="#070709" offset="0%"></stop>
            <stop stop-color="#15151A" offset="44.7365133%"></stop>
            <stop stop-color="#28282F" offset="100%"></stop>
        </linearGradient>
        <linearGradient x1="84.0669551%" y1="95.1083311%" x2="23.8845308%" y2="0%" id="linearGradient-2">
            <stop stop-color="#0B0B0E" offset="0.0765413851%"></stop>
            <stop stop-color="#151519" offset="54.3456678%"></stop>
            <stop stop-color="#2B2B31" offset="100%"></stop>
        </linearGradient>
        <linearGradient x1="55.3926371%" y1="108.852067%" x2="26.1210246%" y2="-14.0221774%" id="linearGradient-3">
            <stop stop-color="#08080A" offset="0%"></stop>
            <stop stop-color="#16161A" offset="49.4852566%"></stop>
            <stop stop-color="#303036" offset="100%"></stop>
        </linearGradient>
        <linearGradient x1="59.3914073%" y1="100%" x2="1.43292476%" y2="-18.664817%" id="linearGradient-4">
            <stop stop-color="#101014" offset="0%"></stop>
            <stop stop-color="#141419" offset="35.7197569%"></stop>
            <stop stop-color="#35353C" offset="100%"></stop>
        </linearGradient>
    </defs>
    <g id="date" stroke="none" stroke-width="1" fill="none" fill-rule="evenodd" opacity="0.509579613">
        <g id="Group" transform="translate(1.000000, 1.000000)" fill-rule="nonzero">
            <path d="M115.40107,257.41573 L249,257.41573 L249,316 L14.2032086,316 L14.2032086,269.398876 L134.042781,156.224719 C161.561497,130.039326 166.44385,114.061798 166.44385,98.9719101 C166.44385,74.5617978 149.57754,60.3595506 116.73262,60.3595506 C90.1016043,60.3595506 67.4652406,70.5674157 52.3743316,91.4269663 L0,57.6966292 C23.9679144,22.6348315 67.4652406,0 123.390374,0 C192.631016,0 238.791444,35.505618 238.791444,91.8707865 C238.791444,122.050562 230.358289,149.567416 186.860963,189.955056 L115.40107,257.41573 Z" id="2019" fill="url(#linearGradient-1)"></path>
            <path d="M401,321 C324.746667,321 268,262.918508 268,160.5 C268,58.0814917 324.746667,0 401,0 C477.696667,0 534,58.0814917 534,160.5 C534,262.918508 477.696667,321 401,321 Z M401.278388,261 C437.179487,261 462,231.666667 462,161 C462,90.3333333 437.179487,61 401.278388,61 C365.820513,61 341,90.3333333 341,161 C341,231.666667 365.820513,261 401.278388,261 Z" id="2019" fill="url(#linearGradient-2)"></path>
            <polygon id="2019" fill="url(#linearGradient-3)" points="540 6 673 6 673 316 601.655629 316 601.655629 63.5714286 540 63.5714286"></polygon>
            <path d="M823.370242,0 C909.294118,0 962,53.6477901 962,153.849448 C962,261.145028 897.778547,321 803.882353,321 C771.107266,321 739.6609,313.462707 717.958478,299.718232 L744.532872,246.957182 C761.363322,258.484807 781.294118,262.475138 802.553633,262.475138 C853.930796,262.475138 887.591696,231.882597 889.806228,172.027624 C871.647059,190.205801 845.072664,199.959945 812.740484,199.959945 C752.948097,199.959945 706,161.83011 706,103.305249 C706,39.9033149 757.820069,0 823.370242,0 Z M828.778243,147 C860.267782,147 882,127.421053 882,100.277512 C882,73.5789474 862.041841,54 827.891213,54 C797.288703,54 776,71.7990431 776,100.277512 C776,128.755981 796.845188,147 828.778243,147 Z" id="2019" fill="url(#linearGradient-4)"></path>
        </g>
    </g>
</svg>

<svg viewBox="0 0 963 322" xmlns="http://www.w3.org/2000/svg"><defs><linearGradient x1="78.157%" y1="104.608%" x2="17.623%" y2="-5.304%" id="a"><stop stop-color="#0F0F12" offset="0%"/><stop stop-color="#15151A" offset="41.334%"/><stop stop-color="#232329" offset="100%"/></linearGradient><linearGradient x1="61.801%" y1="100%" x2="24.135%" y2="-5.352%" id="b"><stop stop-color="#0F0F12" offset="0%"/><stop stop-color="#151519" offset="49.993%"/><stop stop-color="#232329" offset="100%"/></linearGradient><linearGradient x1="55.393%" y1="108.852%" x2="26.121%" y2="-14.022%" id="c"><stop stop-color="#111114" offset="0%"/><stop stop-color="#16161A" offset="53.569%"/><stop stop-color="#28282E" offset="100%"/></linearGradient><linearGradient x1="59.391%" y1="100%" x2="1.433%" y2="-18.665%" id="d"><stop stop-color="#0F0F12" offset="0%"/><stop stop-color="#141419" offset="31.3%"/><stop stop-color="#1F1F24" offset="78.787%"/><stop stop-color="#4B4B57" offset="100%"/></linearGradient></defs><g fill-rule="nonzero" fill="none" opacity=".51"><path d="M115.401 257.416H249V316H14.203v-46.601l119.84-113.174c27.518-26.186 32.4-42.163 32.4-57.253 0-24.41-16.865-38.612-49.71-38.612-26.631 0-49.268 10.207-64.359 31.067L0 57.697C23.968 22.635 67.465 0 123.39 0c69.241 0 115.401 35.506 115.401 91.87 0 30.18-8.433 57.697-51.93 98.085l-71.46 67.46z" fill="url(#a)" transform="translate(1 1)"/><path d="M401 321c-76.253 0-133-58.081-133-160.5S324.747 0 401 0c76.697 0 133 58.081 133 160.5S477.697 321 401 321zm.278-60C437.18 261 462 231.667 462 161S437.18 61 401.278 61C365.821 61 341 90.333 341 161s24.82 100 60.278 100z" fill="url(#b)" transform="translate(1 1)"/><path fill="url(#c)" d="M540 6h133v310h-71.344V63.571H540z" transform="translate(1 1)"/><path d="M823.37 0C909.294 0 962 53.648 962 153.85 962 261.144 897.779 321 803.882 321c-32.775 0-64.221-7.537-85.924-21.282l26.575-52.76c16.83 11.527 36.761 15.517 58.02 15.517 51.378 0 85.039-30.592 87.253-90.447-18.159 18.178-44.733 27.932-77.066 27.932-59.792 0-106.74-38.13-106.74-96.655C706 39.903 757.82 0 823.37 0zm5.408 147c31.49 0 53.222-19.579 53.222-46.722C882 73.578 862.042 54 827.891 54 797.29 54 776 71.799 776 100.278 776 128.756 796.845 147 828.778 147z" fill="url(#d)" transform="translate(1 1)"/></g></svg>
